X:1
T:Where art thou, wanton? - Morley
T:#
%%score { 1 | 2 } 3
L:1/8
Q:1/4=120
M:4/4
K:F
V:1 treble nm="Soprano I" snm="S"
V:2 treble 
V:3 treble-8 nm="Tenor" snm="T"
V:1
 F8 |"^Where art thou, wanton?" A4 z2 F2 | c4 F2 f2 | e2 c2"^Thomas Morley\n(1557-1603)" d4 | %4
w: Where|art, where|art thou, wan-|ton, where art|
 c2 A2 c4 |[M:4/4] C2 c3 (B A2) | G8 | A4 c2 d2- | dc c4 =B2 | c2 A2 B4 | A2 G4 F2 | %11
w: thou, and I|so long have *|sought|thee? and I|* so long a-|bout, and I|so long a-|
 E2 F2 (F2 E2) | F8 | z4 f4 | e2 f2 d4 | c2 d3 c c2- | c2 =B2 c4 | z2 _B2 A2 B2 | G2 c2 c2 =B2 | %19
w: bout have sought *|thee?|See|where thy true|love, where thy true|* love true,|see where thy|true love true his|
 c4 _B4 | A4 (G4- | G2 F2) (F4- | F4 E4) | F4 z2 F2 | c4 B4 | A4 G4 | A4 z2 c2 | f4 e4 | d4 c4 | %29
w: heart to|keep hath|* * brought||thee. Then|why, nay|why dost|thou, why|dost thou|hide thee?|
 z2 c4 =B2 | c2 G2 _B4 | A2 G3 F F2- | F2 (ED) E4 | F2 f2 e2 d2- | dc (c4 =B2) | c8 | c2 B2 A2 G2 | %37
w: why, O,|dost thou hide|thee sweet why dost|* thou * hide|thee? O why dost|* thou hide *|thee?|Still I fol- low|
 F4 f2 e2 | d2 c2 =B2 c2 | d4 g2 f2 | e2 d2 c4 | c2 B2 A2 G2 | F4 f2 e2 | d2 c2 =B2 e2 | %44
w: thee, still I|fol- low, fol- low|thee, but thou|fli- est me;|still I fol- low|thee, but thou|fli- est me, thou|
 d2 c2 =B2 e2 | d2 c4 =B2 | c8 | G2 A2 B4- | B2 A2 F2 G2 | A4 G4 | F2 EF G2 F2 | E2 F2 (F2 E2) | %52
w: fli- est me; O|why fliest thou|me?|Say un- kind|* and do no|more, un-|kind do no more, no|more de- ride *|
 F8 | z4 F4 | A4 z2 F2 | c4 F2 B2 | A2 F2 A3 B | c2 C4 F2- | F2 (ED E4) | F4 A4 | G4 F2 f2 | %61
w: me.|Where|art? where|art thou, wan-|ton where art, where|art thou, where|* art * *|thou? where|art thou, wan-|
 e2 c2 d4 | c2 B2 B2 A2 | G2 A2 G4 | A4 c2 d2- | dc c4 =B2 | c2 A2 B3 B | A2 A2 G4 | F2 f2 e2 f2 | %69
w: ton where art|thou, and I so|long have sought|thee? See where|* thy true love|true his heart to|keep hath brought|thee, see where thy|
 d4 c2 d2- | d2 e2 f4 | e4 d4 | c4 B2 A2 | G4 c4 |[Q:1/4=116] B8- |[Q:1/4=112] B4[Q:1/4=109] A4 | %76
w: true love true|* his heart|to keep,|his heart to|keep, to|keep|* hath|
[Q:1/4=104] G8 |[Q:1/4=102] A8 |] %78
w: brought|thee.|
V:2
 z8 | F8 | A4 z2 F2 | c4 F2 B2 | A2 F2 A3 B |[M:4/4] c2 C4 F2- | F2 (ED E4) | F4 A4 | G4 F2 f2 | %9
w: |Where|art, where|art thou, wan-|ton, where art, where|art thou, where|* art * *|thou, where|art thou, wan-|
 e2 c2 d4 | c2 B2 B2 A2 | G2 A2 G4 | A4 c2 d2- | dc c4 =B2 | c2 A2 _B3 B | A2 A2 G4 | F2 f2 e2 f2 | %17
w: ton, where art|thou, and I so|long have sought|thee? See where|* thy true love|true, his heart to|keep hath brought|thee, see where thy|
 d4 c2 d2- | d2 e2 f4 | e4 d4 | c4 B4- | B2 A2 A2 (GF) | G8 | A2 c2 f4 | e4 d4 | c2 f4 e2 | %26
w: true love true|* his heart|to keep,|his heart|* to keep hath *|brought|thee. Nay, why|then, why,|O why a-|
 f2 d4 c2- | c2 =B2 c2 G2 | _B4 A4 | G2 c2 f4 | e4 d4 | c2 _e2 d2 c2 | B8 | A4 G2 F2- | F2 E2 D4 | %35
w: las, O why|* then dost thou|hide thee?|nay, why then,|why then,|O why dost thou|hide|thee? why dost|* thou hide|
 E8 | z4 c2 B2 | A2 G2 F4 | f2 e2 d2 c2 | =B2 c2 d4 | g2 f2 e2 d2 | c4 c2 B2 | A2 G2 F4 | %43
w: thee?|Still I|fol- low thee,|still I fol- low,|fol- low thee,|but thou fli- est|me; still I|fol- low thee,|
 f2 e2 d2 c2 | =B2 e2 d2 c2 | =B2 e2 d4 | e4 c2 d2 | _e4 d4- | d2 c2 A2 B2 | c6 B2 | A2 GA B2 A2 | %51
w: but thou fli- est|me, thou fli- est|me, thou fliest|me. Say un-|kind, say|* and do no|more de-|ride, do no more de-|
 G2 A2 G4 | A4 F4 | A4 z2 F2 | c4 F2 f2 | e2 c2 d4 | c2 A2 c4 | C2 c3 (B A2) | G8 | A4 c2 d2- | %60
w: ride, de- ride|me. Where|art? where|art, thou, wan-|ton where art|thou, and I|so long have *|sought|thee, and I|
 dc c4 =B2 | c2 A2 B4 | A2 G4 F2 | E2 F2 (F2 E2) | F8 | z4 f4 | e2 f2 d4 | c2 d3 c c2- | %68
w: * so long a-|bout, and I|so long a-|bout have sought *|thee?|See|where thy true|love where thy true|
 c2 =B2 c4 | z2 B2 A2 B2 | G2 c2 c2 =B2 | c4 _B4 | A4 (G2 F2) | E4 A4- | A4 G4- | G2 F2 (F4- | %76
w: * love true,|see where thy|true love true his|heart to|keep, to *|keep, to|* keep|* hath brought|
 F4 E4) | F8 |] %78
w: |thee.|
V:3
 z8 | z8 | z8 | z8 | F8 |[M:4/4][K:treble-8] A4 z2 F2 | c8 | F4 z2 f2 | e2 c2 d4 | c2 f2 B4 | %10
w: ||||Where|art, where|art|thou, wan-|ton, where art|thou, and I|
 c2 _e4 f2 | c8 | F4 f4 | e2 f2 d2 d2 | c2 d2 Bcde | f4 e4 | d2 d2 c2 A2 | B4 F2 B2- | B2 c2 d4 | %19
w: so long have|sought|thee? See|where thy true love|true, see where thy true love|true his|heart to keep, his|heart to keep|* hath brought|
 c4 G4 | A4 B4 | c4 d4 | c8 | F8 | z8 | z4 z2 c2 | f4 e4 | d4 c4 | Bcde f2 F2 | c2 _e2 d4 | %30
w: thee, his|heart to|keep hath|brought|thee.||Why|then, why|dost thou,|why dost thou then hide, why|dost thou hide|
 c4 z2 G2 | c2 c2 B2 A2 | G8 | FGAB c2 d2 | =B2 c2 G4 | c4 c2 B2 | A2 G2 F4 | f2 e2 d2 c2 | %38
w: thee? why|hid- est thou then|thee?|why then dost thou hide thee?|dost thou hide|thee? Still I|fol- low thee,|still I fol- low,|
 =B2 c2 G4 | g2 f2 e2 d2 | c4 c2 _B2 | A2 G2 F4 | f2 e2 d2 c2 | =B2 c2 G2 c2 | G8- | G4 G4 | c8 | %47
w: fol- low thee,|but thou fli- est|me; still I|fol- low thee,|still I fol- low|thee, but still thou|fli\-|* est|me.|
 z4 G2 A2 | B2 c2 d4 | c8 | d4 B4 | c8 | F8- | F8 | z8 | z8 | F8 | A4 z2 F2 | c8 | F4 z2 f2 | %60
w: Say un-|kind and do|not|thus de-|ride|me.||||Where|art, where|art|thou, wan-|
 e2 c2 d4 | c2 f2 B4 | c2 _e4 f2 | c8 | F4 f4 | e2 f2 d2 d2 | c2 d2 Bcde | f4 e4 | d2 d2 c2 A2 | %69
w: ton where art|thou, and I|so long have|sought|thee? See|where thy true love|true, see where thy true love|true, his|heart to keep, his|
 B4 F2 B2- | B2 c2 d4 | c4 G4 | A4 B4 | c4 A4 | B4 B4 | c8- | c8 | F8 |] %78
w: heart to keep|* hath brought|thee, his|heart to|keep, to|keep hath|brought||thee.|

